svg/phone_plus.svg

<svg xmlns="http://www.w3.org/2000/svg" viewBox="0 0 24 24"><path d="M4 3a1 1 0 0 0-1 1 17 17 0 0 0 17 17 1 1 0 0 0 1-1v-3.5a1 1 0 0 0-1-1c-1.24 0-2.45-.2-3.57-.57-.35-.11-.74-.03-1.02.25l-2.2 2.2a15.15 15.15 0 0 1-6.59-6.59l2.2-2.21c.28-.27.36-.66.25-1.01C8.7 6.45 8.5 5.24 8.5 4a1 1 0 0 0-1-1M16 3v3h-3v2h3v3h2V8h3V6h-3V3"/></svg>

<?xml version="1.0" encoding="UTF-8"?><!DOCTYPE svg PUBLIC "-//W3C//DTD SVG 1.1//EN" "http://www.w3.org/Graphics/SVG/1.1/DTD/svg11.dtd"><svg xmlns="http://www.w3.org/2000/svg" xmlns:xlink="http://www.w3.org/1999/xlink" version="1.1" id="mdi-phone-plus" width="24" height="24" viewBox="0 0 24 24"><path d="M4,3A1,1 0 0,0 3,4A17,17 0 0,0 20,21A1,1 0 0,0 21,20V16.5A1,1 0 0,0 20,15.5C18.76,15.5 17.55,15.3 16.43,14.93C16.08,14.82 15.69,14.9 15.41,15.18L13.21,17.38C10.38,15.94 8.07,13.62 6.62,10.79L8.82,8.58C9.1,8.31 9.18,7.92 9.07,7.57C8.7,6.45 8.5,5.24 8.5,4A1,1 0 0,0 7.5,3M16,3V6H13V8H16V11H18V8H21V6H18V3" /></svg>
